icons/document-open.svg

<svg viewBox="0 0 48 48" xmlns="http://www.w3.org/2000/svg" xmlns:xlink="http://www.w3.org/1999/xlink">
<defs>
<linearGradient id="linearGradient5060">
<stop offset="0"/>
<stop offset="1" stop-opacity="0"/>
</linearGradient>
<linearGradient gradientUnits="userSpaceOnUse" id="linearGradient5027" x2="0" y1="-150.69536" y2="327.66289">
<stop offset="0" stop-opacity="0"/>
<stop offset=".5"/>
<stop offset="1" stop-opacity="0"/>
</linearGradient>
<linearGradient gradientTransform="matrix(1,0,0,1.23881,0,-7.8806)" gradientUnits="userSpaceOnUse" id="linearGradient8236" x1="25.875" x2="25.25" y1="10.625" y2="30.875">
<stop offset="0" stop-color="#fafafa"/>
<stop offset=".5" stop-color="#a8a8a8"/>
<stop offset="1" stop-color="#cdcdcd"/>
</linearGradient>
<linearGradient gradientTransform="scale(1.422,.703)" gradientUnits="userSpaceOnUse" id="linearGradient155" x1="19.1161" x2="19.4269" y1="28.946" y2="51.9127">
<stop offset="0" stop-color="#fff"/>
<stop offset="1" stop-color="#fff" stop-opacity="0"/>
</linearGradient>
<linearGradient gradientTransform="matrix(1.5353,0,0,.65134,3.45142,2.448)" gradientUnits="userSpaceOnUse" id="linearGradient156" x1="14.8994" x2="22.7154" y1="27.0596" y2="41.8369">
<stop offset="0" stop-color="#fff" stop-opacity=".134"/>
<stop offset="1" stop-color="#fff" stop-opacity=".052"/>
</linearGradient>
<linearGradient gradientTransform="matrix(1.4627,0,6.907908e-2,.68367,0,0)" gradientUnits="userSpaceOnUse" id="linearGradient158" x1="5.2658" x2="8.2122" y1="18.7259" y2="52.6259">
<stop offset="0" stop-color="#fff" stop-opacity=".701"/>
<stop offset="1" stop-color="#fff" stop-opacity="0"/>
</linearGradient>
<linearGradient gradientUnits="userSpaceOnUse" id="linearGradient13162" x1="74.23294" x2="74.12224" y1="36.48314" y2="31.43643">
<stop offset="0" stop-color="#6194cb"/>
<stop offset="1" stop-color="#729fcf"/>
</linearGradient>
<linearGradient gradientUnits="userSpaceOnUse" id="linearGradient13848" x1="22.25" x2="19.75" xlink:href="#linearGradient5060" y1="37.625" y2="14.875"/>
<radialGradient cx="52.90893" cy="-13.0757" gradientUnits="userSpaceOnUse" id="radialGradient8234" r="36.55384">
<stop offset="0" stop-color="#a3a3a3"/>
<stop offset="1" stop-color="#4c4c4c"/>
</radialGradient>
<radialGradient cx="26.1068" cy="38.1951" gradientTransform="matrix(1.01564,0,.10311,1.00051,0,-8.369458e-2)" gradientUnits="userSpaceOnUse" id="radialGradient159" r="32.2598">
<stop offset="0" stop-color="#a0a0a0"/>
<stop offset="1" stop-color="#a8a8a8"/>
</radialGradient>
<radialGradient cx="605.7143" cy="486.6479" gradientTransform="matrix(-2.77439,0,0,1.96971,112.7623,-872.8854)" gradientUnits="userSpaceOnUse" id="radialGradient5031" r="117.1429" xlink:href="#linearGradient5060"/>
<radialGradient cx="605.7143" cy="486.6479" gradientTransform="matrix(2.77439,0,0,1.96971,-1891.633,-872.8854)" gradientUnits="userSpaceOnUse" id="radialGradient5029" r="117.1429" xlink:href="#linearGradient5060"/>
</defs>
<path d="m 4.62,38.651 c .0418,.4205 .4974,.8409 .9112,.8409 h 31.1361 c .4138,0 .7858,-.4204 .744,-.8409 l -2.6966,-27.1193 c -.0419,-.4204 -.4974,-.8409 -.9112,-.8409 h -12.7234 c -.5906,0 -1.2091,-.3795 -1.4029,-.9603 l -1.103,-3.3059 c -.1692,-.5073 -.5471,-.7358 -1.3145,-.7358 h -14.9373 c -.4138,0 -.7857,.4205 -.7439,.8409 l 3.0415,32.1213 z" fill="url(#radialGradient159)" stroke="#5a5a5a" stroke-linecap="round" stroke-linejoin="round"/>
<path d="m 3.3386,17.5335 h 31.1499" fill="#729fcf" opacity=".114" stroke="#000" stroke-linecap="round" stroke-linejoin="round"/>
<path d="m 5.3302,37.5335 h 29.9877" fill="#729fcf" opacity=".114" stroke="#000" stroke-linecap="round" stroke-linejoin="round"/>
<path d="m 5.3302,35.5335 h 29.9877" fill="#729fcf" opacity=".114" stroke="#000" stroke-linecap="round" stroke-linejoin="round"/>
<g transform="matrix(2.165152e-2,0,0,1.903841e-2,42.41538,36.93372)">
<path d="m -1559.2523,-150.6969 h 1339.6335 v 478.3572 h -1339.6335 z" fill="url(#linearGradient5027)" opacity=".402"/>
<path d="m -219.6188,-150.6804 v 478.3308 c 142.8742,.9005 345.4003,-107.1696 345.4002,-239.1962 s -159.4368,-239.1346 -345.4002,-239.1346 z" fill="url(#radialGradient5029)" opacity=".402"/>
<path d="m -1559.2523,-150.6804 v 478.3308 c -142.8742,.9005 -345.4002,-107.1696 -345.4002,-239.1962 s 159.4368,-239.1346 345.4002,-239.1346 z" fill="url(#radialGradient5031)" opacity=".402"/>
</g>
<path d="m 6.1718,38.4187 c .0313,.3103 -.1547,.5172 -.4755,.4137 s -.5485,-.3103 -.5799,-.6206 l -3.0295,-31.3672 c -.0314,-.3103 .1566,-.4977 .4669,-.4977 l 14.7497,-.0915 c .5313,-.0033 .7395,.0533 .8798,.5172 0,0 1.0854,3.1128 1.2463,3.6981 l -1.5556,-2.917 c -.2652,-.4973 -.5988,-.4138 -.9728,-.4138 h -13.1294 c -.3103,0 -.4963,.2069 -.465,.5172 l 2.9788,30.865 -.1138,-.1034 z" display="block" fill="url(#linearGradient158)"/>
<path d="m 2.3052,7.5335 h 14.7838" fill="#729fcf" opacity=".114" stroke="#000" stroke-linecap="round" stroke-linejoin="round"/>
<path d="m 2.7573,11.5335 h 30.7389" fill="#729fcf" opacity=".114" stroke="#000" stroke-linecap="round" stroke-linejoin="round"/>
<g display="block" fill="#fff" fill-opacity=".58" stroke="#000" transform="matrix(1.03442,0,.10452,1.03442,-10.03248,2.63191)">
<path d="m 41.7857,9.0364 c .0097,-.4746 .0152,-.7245 -.4234,-.7242 l -12.5558,.0086 c -.3,0 -.3246,-.1432 0,0 s 1.2471,.6583 2.1827,.701 c 0,0 10.7965,.0165 10.7965,.0146 z" stroke="none"/>
</g>
<path d="m 3.1629,15.5335 h 30.8306" fill="#729fcf" opacity=".114" stroke="#000" stroke-linecap="round" stroke-linejoin="round"/>
<path d="m 5.1595,33.5335 h 29.9877" fill="#729fcf" opacity=".114" stroke="#000" stroke-linecap="round" stroke-linejoin="round"/>
<path d="m 4.8658,31.5335 h 30.1087" fill="#729fcf" opacity=".114" stroke="#000" stroke-linecap="round" stroke-linejoin="round"/>
<path d="m 4.6336,29.5335 h 30.1692" fill="#729fcf" opacity=".114" stroke="#000" stroke-linecap="round" stroke-linejoin="round"/>
<path d="m 4.463,27.5335 h 30.1692" fill="#729fcf" opacity=".114" stroke="#000" stroke-linecap="round" stroke-linejoin="round"/>
<path d="m 4.2557,25.5335 h 30.2051" fill="#729fcf" opacity=".114" stroke="#000" stroke-linecap="round" stroke-linejoin="round"/>
<path d="m 4.0235,23.5335 h 30.2656" fill="#729fcf" opacity=".114" stroke="#000" stroke-linecap="round" stroke-linejoin="round"/>
<path d="m 3.8528,21.5335 h 30.2656" fill="#729fcf" opacity=".114" stroke="#000" stroke-linecap="round" stroke-linejoin="round"/>
<g display="block" fill="#fff" fill-opacity=".58" stroke="#000" transform="matrix(1.03442,0,.10452,1.03442,-10.03248,2.63191)">
<path d="m 41.7857,9.0364 c .0097,-.4746 .0152,-.7245 -.4234,-.7242 l -12.5558,.0086 c -.3,0 -.3246,-.1432 0,0 s 1.2471,.6583 2.1827,.701 c 0,0 10.7965,.0165 10.7965,.0146 z" stroke="none"/>
</g>
<path d="m 2.9642,13.5335 h 31.0265" fill="#729fcf" opacity=".114" stroke="#000" stroke-linecap="round" stroke-linejoin="round"/>
<path d="m 3.6514,19.5335 h 30.2958" fill="#729fcf" opacity=".114" stroke="#000" stroke-linecap="round" stroke-linejoin="round"/>
<path d="m 2.5243,9.5335 h 15.2808" fill="#729fcf" opacity=".114" stroke="#000" stroke-linecap="round" stroke-linejoin="round"/>
<path d="m 34.375,14.125 2.625,24.625 -31,.125 -1.875,-24.75 h 30.25 z" display="block" fill="url(#linearGradient13848)" opacity=".392"/>
<path d="m 43.375,2.4944 c .5,16.8787 -9.0751,18.5285 -6.0126,29.0003 l -31.4874,.8859 c -1.875,-12.8526 8.375,-21.2146 5.375,-29.7313 l 32.125,-.1549 z" display="block" fill="url(#linearGradient8236)" stroke="url(#radialGradient8234)"/>
<path d="m 15.4375,6.5625 h 23.5625" display="block" fill="none" stroke="#a1a1a1"/>
<path d="m 5.7786,39.066 c .1034,.2115 .3103,.4229 .6206,.4229 h 33.3085 c .2069,0 .5211,-.1263 .7081,-.2643 .5304,-.3916 .6549,-.6124 .8928,-.9735 2.4482,-3.7155 5.8052,-19.2769 5.8052,-19.2769 .1034,-.2114 -.1035,-.4229 -.4138,-.4229 h -34.9236 c -.3104,0 -1.656,16.1073 -4.863,19.287 l -1.2383,1.2277 h .1035 z" display="block" fill="url(#linearGradient13162)" stroke="#3465a4" stroke-linejoin="round"/>
<path d="m 15.3561,8.5625 h 19.7253" display="block" fill="none" stroke="#a1a1a1"/>
<path d="m 13.1345,20.1386 c -.7728,4.9908 -1.5013,9.0093 -2.716,13.5139 2.3865,-.7071 7.1161,-3.2045 17.1161,-3.2045 s 16.7236,-9.2487 17.6517,-10.3536 l -32.0518,.0442 z" fill="url(#linearGradient156)" fill-rule="evenodd"/>
<path d="m 15.143,10.5625 h 24.3148" display="block" fill="none" stroke="#a1a1a1"/>
<path d="m 45.8201,19.6875 h -33.1585 c 0,0 -2.1477,16.0196 -4.7223,18.2406 8.1211,0 31.5712,-.0487 31.591,-.0487 1.7517,0 4.9077,-12.6362 6.2898,-18.1919 z" fill="none" opacity=".523" stroke="url(#linearGradient155)" stroke-linecap="round"/>
<path d="m 14.3988,12.5625 h 23.8534" display="block" fill="none" stroke="#a1a1a1"/>
<path d="m 13.629,14.5625 h 23.3463" display="block" fill="none" stroke="#a1a1a1"/>
<path d="m 12.5207,16.5625 h 18.6461" display="block" fill="none" stroke="#a1a1a1"/>
<path d="m 6.375,31.75 c -1.2414,-12.238 7.1875,-19.0625 5.625,-28.75 h 30.875 l -30,.625 c 1.25,9.5625 -6.1964,14.6464 -6.5,28.125 z" display="block" fill="#fff"/>
</svg>

<svg height="48" id="svg97" width="48" xmlns="http://www.w3.org/2000/svg" xmlns:xlink="http://www.w3.org/1999/xlink">
<defs id="defs3">
<linearGradient id="linearGradient5060">
<stop id="stop5062" offset="0"/>
<stop id="stop5064" offset="1" style="stop-opacity:0"/>
</linearGradient>
<linearGradient id="linearGradient5048">
<stop id="stop5050" offset="0" style="stop-opacity:0"/>
<stop id="stop5056" offset=".5"/>
<stop id="stop5052" offset="1" style="stop-opacity:0"/>
</linearGradient>
<linearGradient id="linearGradient269">
<stop id="stop270" offset="0" style="stop-color:#a3a3a3"/>
<stop id="stop271" offset="1" style="stop-color:#4c4c4c"/>
</linearGradient>
<linearGradient id="linearGradient259">
<stop id="stop260" offset="0" style="stop-color:#fafafa"/>
<stop id="stop8238" offset=".5" style="stop-color:#a8a8a8"/>
<stop id="stop261" offset="1" style="stop-color:#cdcdcd"/>
</linearGradient>
<linearGradient id="linearGradient13842">
<stop id="stop13844" offset="0"/>
<stop id="stop13846" offset="1" style="stop-opacity:0"/>
</linearGradient>
<linearGradient id="linearGradient9766">
<stop id="stop9768" offset="0" style="stop-color:#6194cb"/>
<stop id="stop9770" offset="1" style="stop-color:#729fcf"/>
</linearGradient>
<linearGradient id="linearGradient148">
<stop id="stop149" offset="0" style="stop-opacity:.134;stop-color:#fff"/>
<stop id="stop150" offset="1" style="stop-opacity:.052;stop-color:#fff"/>
</linearGradient>
<linearGradient id="linearGradient335">
<stop id="stop336" offset="0" style="stop-color:#fff"/>
<stop id="stop337" offset="1" style="stop-opacity:0;stop-color:#fff"/>
</linearGradient>
<linearGradient id="linearGradient1789">
<stop id="stop1790" offset="0" style="stop-color:#a0a0a0"/>
<stop id="stop1791" offset="1" style="stop-color:#a8a8a8"/>
</linearGradient>
<linearGradient id="linearGradient137">
<stop id="stop138" offset="0" style="stop-opacity:.701;stop-color:#fff"/>
<stop id="stop139" offset="1" style="stop-opacity:0;stop-color:#fff"/>
</linearGradient>
<linearGradient gradientTransform="matrix(2.77439,0,0,1.96971,-1892.179,-872.8854)" gradientUnits="userSpaceOnUse" id="linearGradient5027" x1="302.8571" x2="302.8571" xlink:href="#linearGradient5048" y1="366.6479" y2="609.5051"/>
<linearGradient gradientTransform="matrix(1,0,0,1.23881,0,-7.8806)" gradientUnits="userSpaceOnUse" id="linearGradient8236" x1="25.875" x2="25.25" xlink:href="#linearGradient259" y1="10.625" y2="30.875"/>
<linearGradient gradientTransform="scale(1.422,.703)" gradientUnits="userSpaceOnUse" id="linearGradient155" x1="19.1161" x2="19.4269" xlink:href="#linearGradient335" y1="28.946" y2="51.9127"/>
<linearGradient gradientTransform="matrix(1.5353,0,0,.65134,3.45142,2.448)" gradientUnits="userSpaceOnUse" id="linearGradient156" x1="14.8994" x2="22.7154" xlink:href="#linearGradient148" y1="27.0596" y2="41.8369"/>
<linearGradient gradientTransform="matrix(1.4627,0,6.907908e-2,.68367,0,0)" gradientUnits="userSpaceOnUse" id="linearGradient158" x1="5.2658" x2="8.2122" xlink:href="#linearGradient137" y1="18.7259" y2="52.6259"/>
<linearGradient gradientTransform="matrix(1,0,0,1.02212,52.05694,-1.32303)" gradientUnits="userSpaceOnUse" id="linearGradient13162" x1="22.176" x2="22.0653" xlink:href="#linearGradient9766" y1="36.988" y2="32.0505"/>
<linearGradient gradientUnits="userSpaceOnUse" id="linearGradient13848" x1="22.25" x2="19.75" xlink:href="#linearGradient13842" y1="37.625" y2="14.875"/>
<radialGradient cx="605.7143" cy="486.6479" fx="605.7143" fy="486.6479" gradientTransform="matrix(-2.77439,0,0,1.96971,112.7623,-872.8854)" gradientUnits="userSpaceOnUse" id="radialGradient5031" r="117.1429" xlink:href="#linearGradient5060"/>
<radialGradient cx="605.7143" cy="486.6479" fx="605.7143" fy="486.6479" gradientTransform="matrix(2.77439,0,0,1.96971,-1891.633,-872.8854)" gradientUnits="userSpaceOnUse" id="radialGradient5029" r="117.1429" xlink:href="#linearGradient5060"/>
<radialGradient cx="8.8244" cy="3.7561" fx="8.8244" fy="3.7561" gradientTransform="matrix(.96827,0,0,1.04669,44.36453,-17.00717)" gradientUnits="userSpaceOnUse" id="radialGradient8234" r="37.7517" xlink:href="#linearGradient269"/>
<radialGradient cx="26.1068" cy="38.1951" fx="26.1068" fy="38.1951" gradientTransform="matrix(1.01564,0,.10311,1.00051,0,-8.369458e-2)" gradientUnits="userSpaceOnUse" id="radialGradient159" r="32.2598" xlink:href="#linearGradient1789"/>
</defs>
<path d="M4.62,38.651C4.6618,39.0715 5.1174,39.4919 5.5312,39.4919L36.6673,39.4919C37.0811,39.4919 37.4531,39.0715 37.4113,38.651L34.7147,11.5317C34.6728,11.1113 34.2173,10.6908 33.8035,10.6908L21.0801,10.6908C20.4895,10.6908 19.871,10.3113 19.6772,9.7305L18.5742,6.4246C18.405,5.9173 18.0271,5.6888 17.2597,5.6888L2.3224,5.6888C1.9086,5.6888 1.5367,6.1093 1.5785,6.5297L4.62,38.651z" id="path2375" style="stroke-linejoin:round;fill:url(#radialGradient159);stroke-linecap:round;stroke:#5a5a5a"/>
<path d="M3.3386,17.5335L34.4885,17.5335" id="path13113" style="stroke-linejoin:round;opacity:.114;fill:#729fcf;stroke-linecap:round;stroke:#000"/>
<path d="M5.3302,37.5335L35.3179,37.5335" id="path13160" style="stroke-linejoin:round;opacity:.114;fill:#729fcf;stroke-linecap:round;stroke:#000"/>
<path d="M5.3302,35.5335L35.3179,35.5335" id="path13139" style="stroke-linejoin:round;opacity:.114;fill:#729fcf;stroke-linecap:round;stroke:#000"/>
<g id="g5022" transform="matrix(2.165152e-2,0,0,1.903841e-2,42.41538,36.93372)">
<rect height="478.3572" id="rect4173" style="opacity:.402;fill:url(#linearGradient5027)" width="1339.6335" x="-1559.2523" y="-150.6969"/>
<path d="M-219.6188,-150.6804C-219.6188,-150.6804 -219.6188,327.6504 -219.6188,327.6504C-76.7446,328.5509 125.7815,220.4808 125.7814,88.4542C125.7814,-43.5723 -33.6554,-150.6804 -219.6188,-150.6804z" id="path5058" style="opacity:.402;fill:url(#radialGradient5029)"/>
<path d="M-1559.2523,-150.6804C-1559.2523,-150.6804 -1559.2523,327.6504 -1559.2523,327.6504C-1702.1265,328.5509 -1904.6525,220.4808 -1904.6525,88.4542C-1904.6525,-43.5723 -1745.2157,-150.6804 -1559.2523,-150.6804z" id="path5018" style="opacity:.402;fill:url(#radialGradient5031)"/>
</g>
<path d="M6.1718,38.4187C6.2031,38.729 6.0171,38.9359 5.6963,38.8324L5.6963,38.8324C5.3756,38.729 5.1478,38.5221 5.1164,38.2118L2.0869,6.8446C2.0555,6.5343 2.2435,6.3469 2.5538,6.3469L17.3035,6.2554C17.8348,6.2521 18.043,6.3087 18.1833,6.7726C18.1833,6.7726 19.2687,9.8854 19.4296,10.4707L17.874,7.5537C17.6088,7.0564 17.2752,7.1399 16.9012,7.1399L3.7718,7.1399C3.4615,7.1399 3.2755,7.3468 3.3068,7.6571L6.2856,38.5221L6.1718,38.4187z" id="path2380" style="display:block;fill:url(#linearGradient158)"/>
<path d="M2.3052,7.5335L17.089,7.5335" id="path13145" style="stroke-linejoin:round;opacity:.114;fill:#729fcf;stroke-linecap:round;stroke:#000"/>
<path d="M2.7573,11.5335L33.4962,11.5335" id="path13115" style="stroke-linejoin:round;opacity:.114;fill:#729fcf;stroke-linecap:round;stroke:#000"/>
<g id="g2381" style="fill-opacity:.58;stroke:#000;display:block;fill:#fff" transform="matrix(1.03442,0,.10452,1.03442,-10.03248,2.63191)">
<path d="M41.7857,9.0364C41.7954,8.5618 41.8009,8.3119 41.3623,8.3122L28.8065,8.3208C28.5065,8.3208 28.4819,8.1776 28.8065,8.3208C29.1311,8.464 30.0536,8.9791 30.9892,9.0218C30.9892,9.0218 41.7857,9.0383 41.7857,9.0364z" id="path2382" style="stroke:none"/>
</g>
<path d="M3.1629,15.5335L33.9935,15.5335" id="path13123" style="stroke-linejoin:round;opacity:.114;fill:#729fcf;stroke-linecap:round;stroke:#000"/>
<path d="M5.1595,33.5335L35.1472,33.5335" id="path13121" style="stroke-linejoin:round;opacity:.114;fill:#729fcf;stroke-linecap:round;stroke:#000"/>
<path d="M4.8658,31.5335L34.9745,31.5335" id="path13119" style="stroke-linejoin:round;opacity:.114;fill:#729fcf;stroke-linecap:round;stroke:#000"/>
<path d="M4.6336,29.5335L34.8028,29.5335" id="path13135" style="stroke-linejoin:round;opacity:.114;fill:#729fcf;stroke-linecap:round;stroke:#000"/>
<path d="M4.463,27.5335L34.6322,27.5335" id="path13137" style="stroke-linejoin:round;opacity:.114;fill:#729fcf;stroke-linecap:round;stroke:#000"/>
<path d="M4.2557,25.5335L34.4608,25.5335" id="path13143" style="stroke-linejoin:round;opacity:.114;fill:#729fcf;stroke-linecap:round;stroke:#000"/>
<path d="M4.0235,23.5335L34.2891,23.5335" id="path13133" style="stroke-linejoin:round;opacity:.114;fill:#729fcf;stroke-linecap:round;stroke:#000"/>
<path d="M3.8528,21.5335L34.1184,21.5335" id="path13117" style="stroke-linejoin:round;opacity:.114;fill:#729fcf;stroke-linecap:round;stroke:#000"/>
<g id="g1853" style="fill-opacity:.58;stroke:#000;display:block;fill:#fff" transform="matrix(1.03442,0,.10452,1.03442,-10.03248,2.63191)">
<path d="M41.7857,9.0364C41.7954,8.5618 41.8009,8.3119 41.3623,8.3122L28.8065,8.3208C28.5065,8.3208 28.4819,8.1776 28.8065,8.3208C29.1311,8.464 30.0536,8.9791 30.9892,9.0218C30.9892,9.0218 41.7857,9.0383 41.7857,9.0364z" id="path1855" style="stroke:none"/>
</g>
<path d="M2.9642,13.5335L33.9907,13.5335" id="path13127" style="stroke-linejoin:round;opacity:.114;fill:#729fcf;stroke-linecap:round;stroke:#000"/>
<path d="M3.6514,19.5335L33.9472,19.5335" id="path13125" style="stroke-linejoin:round;opacity:.114;fill:#729fcf;stroke-linecap:round;stroke:#000"/>
<path d="M2.5243,9.5335L17.8051,9.5335" id="path13147" style="stroke-linejoin:round;opacity:.114;fill:#729fcf;stroke-linecap:round;stroke:#000"/>
<path d="M34.375,14.125L37,38.75L6,38.875C6,38.875 4.125,14.125 4.125,14.125C4.125,14.125 34.5,14.125 34.375,14.125z" id="path13840" style="display:block;opacity:.392;fill:url(#linearGradient13848)"/>
<path d="M43.375,2.4944C43.875,19.3731 34.2999,21.0229 37.3624,31.4947C37.3624,31.4947 5.875,32.3806 5.875,32.3806C4,19.528 14.25,11.166 11.25,2.6493L43.375,2.4944z" id="path8230" style="display:block;fill:url(#linearGradient8236);stroke:url(#radialGradient8234)"/>
<path d="M15.4375,6.5625L39,6.5625" id="path8277" style="display:block;fill:none;stroke:#a1a1a1"/>
<path d="M5.7786,39.066C5.882,39.2775 6.0889,39.4889 6.3992,39.4889L39.7077,39.4889C39.9146,39.4889 40.2288,39.3626 40.4158,39.2246C40.9462,38.833 41.0707,38.6122 41.3086,38.2511C43.7568,34.5356 47.1138,18.9742 47.1138,18.9742C47.2172,18.7628 47.0103,18.5513 46.7,18.5513L11.7764,18.5513C11.466,18.5513 10.1204,34.6586 6.9134,37.8383L5.6751,39.066L5.7786,39.066z" id="path2401" style="display:block;stroke-linejoin:round;fill:url(#linearGradient13162);stroke:#3465a4"/>
<path d="M15.3561,8.5625L35.0814,8.5625" id="path8279" style="display:block;fill:none;stroke:#a1a1a1"/>
<path d="M13.1345,20.1386C12.3617,25.1294 11.6332,29.1479 10.4185,33.6525C12.805,32.9454 17.5346,30.448 27.5346,30.448C37.5346,30.448 44.2582,21.1993 45.1863,20.0944L13.1345,20.1386z" id="path323" style="fill:url(#linearGradient156);fill-rule:evenodd"/>
<path d="M15.143,10.5625L39.4578,10.5625" id="path8281" style="display:block;fill:none;stroke:#a1a1a1"/>
<path d="M45.8201,19.6875L12.6616,19.6875C12.6616,19.6875 10.5139,35.7071 7.9393,37.9281C16.0604,37.9281 39.5105,37.8794 39.5303,37.8794C41.282,37.8794 44.438,25.2432 45.8201,19.6875z" id="path324" style="opacity:.523;fill:none;stroke-linecap:round;stroke:url(#linearGradient155)"/>
<path d="M14.3988,12.5625L38.2522,12.5625" id="path8283" style="display:block;fill:none;stroke:#a1a1a1"/>
<path d="M13.629,14.5625L36.9753,14.5625" id="path8285" style="display:block;fill:none;stroke:#a1a1a1"/>
<path d="M12.5207,16.5625L31.1668,16.5625" id="path8287" style="display:block;fill:none;stroke:#a1a1a1"/>
<path d="M6.375,31.75C5.1336,19.512 13.5625,12.6875 12,3L42.875,3L12.875,3.625C14.125,13.1875 6.6786,18.2714 6.375,31.75z" id="path8289" style="display:block;fill:#fff"/>
</svg>
